X: 21674
T: WOO'D AND MARRIED AND A'
%R: slip-jig
B: W. Hamilton "Universal Tune-Book" Vol. 2 Glasgow 1846 p.167 #4
S: http://s3-eu-west-1.amazonaws.com/itma.dl.printmaterial/book_pdfs/hamiltonvol2web.pdf
Z: 2016 John Chambers <jc:trillian.mit.edu>
M: 9/8
L: 1/8
K: F
% - - - - - - - - - - - - - - - - - - - - - - - - -
f |\
c2B A>BG F2F | A>Bc cfA c2d |\
c>dB A>BG F>GA | D2d d>e^c d2f |\
c>de fgf e>dc | A>Bc cfA c2f |
c>dB A>BG F>GA | D2d d>e^c d3 |]\
c2B A>BG F3 | A>Bc cfA c2d |\
c>dB A>BG F>GA | D2d d>e^c d2 |]
% - - - - - - - - - - - - - - - - - - - - - - - - -

%%sep 1 1 500
%%sep 1 1 500

